X: 8
T: No_106_Song_When_Begging_for_Tobacco.krn
N: Derived from No_106_Song_When_Begging_for_Tobacco.krn
%%abc-version 2.0
%%abcx-abcm2ps-target-version 5.9.1 (29 Sep 2008)
%%abc-creator hum2abc beta
%%abcx-conversion-date 2019/03/15 08:36:49
%%humdrum-veritas 4232314895
%%humdrum-veritas-data 3184853197
%%linebreak <none>
%%barnumbers 0
L: 1/8
M: 2/4
%%staves {1 2}
V: 1 clef=bass
V: 2 clef=bass
K: Eb
[V:1] [K:clef=bass][M:2/4]!fermata!E2FE [I:setbarnb 2]| 
[V:2] [K:clef=bass][M:2/4]G,,G,, G,,G,, | 
[V:1] E2B,/G,/G, ||  
[V:2] G,,G,, G,,G,, ||  
[V:1] [M:3/4]F,/!fermata!E,3/ (3F,E,E,!fermata!E,2 ||  
[V:2] [M:3/4]z6 ||  
[V:1] [M:2/4]B,2B,2 ||  
[V:2] [M:2/4]z4 ||  
[V:1] [M:3/4]G,/F,3/E,2E,2 ||  
[V:2] [M:3/4]z6 ||  
[V:1] [M:2/4]E,2E,2 ||  
[V:2] [M:2/4]z4 ||  
[V:1] [M:3/4]F,/F,/E, F,/F,/E,E,2 ||  
[V:2] [M:3/4]z6 ||  
[V:1] [M:2/4]B,,2B,,2 :|]  
[V:2] [M:2/4]z4 :|]  



